frontend/src/images/success.svg

<svg width="120" height="120" viewBox="0 0 120 120" fill="none" xmlns="http://www.w3.org/2000/svg">
<path fill-rule="evenodd" clip-rule="evenodd" d="M117 60C117 91.4802 91.4802 117 60 117C28.5198 117 3 91.4802 3 60C3 28.5198 28.5198 3 60 3C91.4802 3 117 28.5198 117 60ZM120 60C120 93.1371 93.1371 120 60 120C26.8629 120 0 93.1371 0 60C0 26.8629 26.8629 0 60 0C93.1371 0 120 26.8629 120 60ZM57.5502 76.888L86.7676 48.888L81.2324 43.112L54.4277 68.7999L39.3496 57.8561L34.6504 64.3305L52.433 77.2372L55.1375 79.2001L57.5502 76.888Z" fill="black"/>
</svg>

<svg width="120" height="120" viewBox="0 0 120 120" fill="none" xmlns="http://www.w3.org/2000/svg"><path fill-rule="evenodd" clip-rule="evenodd" d="M117 60c0 31.48-25.52 57-57 57S3 91.48 3 60 28.52 3 60 3s57 25.52 57 57zm3 0c0 33.137-26.863 60-60 60S0 93.137 0 60 26.863 0 60 0s60 26.863 60 60zM57.55 76.888l29.218-28-5.536-5.776L54.428 68.8 39.35 57.856l-4.7 6.474 17.783 12.907 2.705 1.963 2.412-2.312z" fill="#000"/></svg>
